svgs/duotone/cubes.svg

<svg xmlns="http://www.w3.org/2000/svg" viewBox="0 0 576 512"><!--! Font Awesome Pro 6.1.1 by @fontawesome - https://fontawesome.com License - https://fontawesome.com/license (Commercial License) Copyright 2022 Fonticons, Inc. --><defs><style>.fa-secondary{opacity:.4}</style></defs><path class="fa-primary" d="M288 457.5L174.5 507.3C160.2 513.7 143.8 513.7 129.5 507.3L33.46 465.1C13.13 456.2 0 436.1 0 413.9V294.7C0 271.5 14.39 250.6 36.15 242.4L132.1 205.1C133.4 205.5 134.7 205.1 136 204.7V92.52C136 69.25 150.4 48.41 172.1 40.16L268.1 3.76C280.9-1.089 295.1-1.089 307.9 3.76L403.9 40.16C425.6 48.41 440 69.25 440 92.52V204.7C441.3 205.1 442.6 205.5 443.9 205.1L539.9 242.4C561.6 250.6 576 271.5 576 294.7V413.9C576 436.1 562.9 456.2 542.5 465.1L446.5 507.3C432.2 513.7 415.8 513.7 401.5 507.3L288 457.5zM290.8 48.64C289 47.95 286.1 47.95 285.2 48.64L206.8 78.35L287.1 109.5L369.2 78.35L290.8 48.64zM264 240.9V151.7L184 121V210.6L264 240.9zM312 240.9L392 210.6V121L312 151.7V240.9zM70.81 280.6L152 311.7L233.2 280.6L154.8 250.9C153 250.2 150.1 250.2 149.2 250.9L70.81 280.6zM176 454.3L256 419.1V323.2L176 353.9V454.3zM128 353.9L48 323.2V413.9C48 417.1 49.88 419.9 52.78 421.2L128 454.3V353.9zM342.8 280.6L424 311.7L505.2 280.6L426.8 250.9C425 250.2 422.1 250.2 421.2 250.9L342.8 280.6zM523.2 421.2C526.1 419.9 528 417.1 528 413.9V323.2L448 353.9V454.3L523.2 421.2zM320 323.2V419.1L400 454.3V353.9L320 323.2z"/><path class="fa-secondary" d="M264 151.7V240.9L184 210.6V121L264 151.7zM392 210.6L312 240.9V151.7L392 121V210.6zM256 419.1L176 454.3V353.9L256 323.2V419.1zM48 323.2L128 353.9V454.3L52.78 421.2C49.88 419.9 48 417.1 48 413.9V323.2zM528 323.2V413.9C528 417.1 526.1 419.9 523.2 421.2L448 454.3V353.9L528 323.2zM320 419.1V323.2L400 353.9V454.3L320 419.1z"/></svg>

<svg xmlns="http://www.w3.org/2000/svg" viewBox="0 0 576 512"><!--! Font Awesome Pro 6.5.1 by @fontawesome - https://fontawesome.com License - https://fontawesome.com/license (Commercial License) Copyright 2023 Fonticons, Inc. --><defs><style>.fa-secondary{opacity:.4}</style></defs><path class="fa-secondary" d="M184 121v89.6l80 30.3V151.7L184 121zm208 89.6V121l-80 30.7v89.2l80-30.3zM256 323.2l-80 30.7V454.3l80-35.2V323.2zm-208 0v90.7c0 3.2 1.9 6 4.8 7.3L128 454.3V353.9L48 323.2zm400 30.7V454.3l75.2-33.1c2.9-1.3 4.8-4.2 4.8-7.3V323.2l-80 30.7zM400 454.3V353.9l-80-30.7v95.9l80 35.2z"/><path class="fa-primary" d="M290.8 48.6c-1.8-.7-3.8-.7-5.7 0L206.8 78.4 288 109.5l81.2-31.1L290.8 48.6zM184 210.6l80 30.3V151.7L184 121v89.6zm128 30.3l80-30.3V121l-80 30.7v89.2zM288 457.5L174.5 507.4c-14.4 6.3-30.7 6.3-45.1 0l-96-42.2C13.1 456.2 0 436.1 0 413.9V294.7c0-23.3 14.4-44.1 36.1-52.4l96-36.4c1.3-.5 2.6-.9 3.9-1.3V92.5c0-23.3 14.4-44.1 36.1-52.4l96-36.4c12.8-4.8 26.9-4.8 39.7 0l96 36.4C425.6 48.4 440 69.3 440 92.5V204.7c1.3 .4 2.6 .8 3.9 1.3l96 36.4c21.8 8.2 36.1 29.1 36.1 52.4V413.9c0 22.2-13.1 42.3-33.5 51.3l-96 42.2c-14.4 6.3-30.7 6.3-45.1 0L288 457.5zM149.2 250.9L70.8 280.6 152 311.7l81.2-31.1-78.4-29.7c-1.8-.7-3.8-.7-5.7 0zm26.8 103V454.3l80-35.2V323.2l-80 30.7zm-48 0L48 323.2v90.7c0 3.2 1.9 6 4.8 7.3L128 454.3V353.9zm293.2-103l-78.4 29.7L424 311.7l81.2-31.1-78.4-29.7c-1.8-.7-3.8-.7-5.7 0zM448 454.3l75.2-33.1c2.9-1.3 4.8-4.2 4.8-7.3V323.2l-80 30.7V454.3zM400 353.9l-80-30.7v95.9l80 35.2V353.9z"/></svg>
